X:200 
T:Stage Reel, The
S:Jack Wade
F:file ID: cre.4/200stage
B:CRE4.208 (Ril an Staitse)
L:1/8
Q:180
M:4/4
R:reel
K:G
Bc|dge^c dBA=c|BGAF GD[BB,]D|[GG,][BB,]DG Bdgd|cAag fdcA|
dge^c dBA=c|BGAF GD[BB,]G,|dB~B2 gd~d2|cAFA G2:|
Bc|dgg2 bgfg|dgBd cAFA|D2FA adfd|ed~d2 fd~d2|
dge^c dBA=c|BGAF GD[BB,][GG,]|dB~B2 gd~d2|cAFA G2:|

%%%

